X: 19670
T: Jenna The Kid
R: jig
M: 6/8
K: Dmajor
|:afd AFD|GAB AFD|CEG BAG|1 FAd AFD:|2 FDE D3||
|:afd AFD|GAB AFD|CEG BAG|1 FAd AFD:|2 FDE D3||
|:[A,E] z [A,E] [A,F] z [A,F]|[A,E]FG AFD|dcdAFD|1 GFE FED:|2 GFE D3||
|:[A,E] z [A,E] [A,F] z [A,F]|[A,E]FG AFD|dcdAFD|1 GFE FED:|2 GFE D3||
|:(E/F/)AF ^EA(^E|F)Ad AFD|GBG FB(F|G)AB dBG|
^ce(^c =c)e(=c|^c)ea e^cA|1 d^cd AFD|GFE D3:|2 d^cB AFD|GFE D3||

